!!!SOCIAL_FUNCTION:	songs of war
!!!PDT:	1918

Specific Region: Dakotas, Minnesota, Montana, Nebraska
!!!REG: Dakotas and Montana
!!!LING_GROUP: Siouan
!!!LANG: Tone
!!!OTL@ENG: Ceremonial Song of the Miwatani
!!!ONM: No. 122
**kern
*Imale
*clefF4
*k[f#c#g#d#a#]
*M2/4
*MM66
16d#
=1
8.B
16B
16B
8G#
16d#
=2
(12d#
12B)
12G#
(16G#
8F##
16G#)
=3
4.D#
16C#
16BB
=4
12D#
12C#
12BB
8.BB
16F#
=5||
*M3/4
4.D#
16C#
16BB
16C#
8.BB
=6||
*M2/4
8.GG#
16GG#
4GG#
=7
2GG#
==
*-
!!!CNT: Native American -- Sioux
!!!MRD: 1911/07//-1914///
!!!OCL: Frances Densmore
!!!YOR1: Teton Sioux Music, Bulletin 61,
!!!YOR2: Bureau of American Ethnology, Smithsonian Institution
!!!PPR: Government Printing Office
!!!PPP: Washington, D.C.
!!!PDT: 1918///
!!!ENC: Craig Stuart Sapp
!!!END: 2002/03/25/
!!!EEV: 2002/03/31/
!!!AGN: War Song
!!!MPN@@SIO: Waking'yan-wata'kpe
!!!MPN@ENG: Charging Thunder
!!!TXO: Teton Sioux
!!!MLC: Standing Rock Reservation, South Dakota, United States of America
!!!ARL: 45.9/-100.7#
!!!catalog: Catalogue No. 572
!!!PPG: 328
!!!EFL: 122/245
!!!VTS: 1274409553
